cached_logos/distribution-spec.svg

<svg xmlns="http://www.w3.org/2000/svg" role="img" xmlns:xlink="http://www.w3.org/1999/xlink" viewBox="-6.69 -1.69 451.62 72.12"><title>distribution-spec logo</title><defs><g id="glyph-0-0"><path d="M 24.140625 0 L 24.140625 -3.925781 C 22.167969 -0.839844 19.265625 0.703125 15.4375 0.703125 C 12.957031 0.703125 10.679688 0.0195312 8.597656 -1.347656 C 6.519531 -2.714844 4.90625 -4.625 3.765625 -7.074219 C 2.621094 -9.527344 2.050781 -12.34375 2.050781 -15.527344 C 2.050781 -18.632812 2.570312 -21.449219 3.601562 -23.980469 C 4.636719 -26.507812 6.191406 -28.445312 8.261719 -29.796875 C 10.332031 -31.144531 12.648438 -31.816406 15.203125 -31.816406 C 17.078125 -31.816406 18.75 -31.421875 20.214844 -30.628906 C 21.679688 -29.839844 22.871094 -28.808594 23.789062 -27.539062 L 23.789062 -42.949219 L 29.03125 -42.949219 L 29.03125 0 Z M 7.46875 -15.527344 C 7.46875 -11.542969 8.3125 -8.5625 9.992188 -6.59375 C 11.671875 -4.621094 13.652344 -3.632812 15.9375 -3.632812 C 18.242188 -3.632812 20.199219 -4.574219 21.8125 -6.460938 C 23.421875 -8.34375 24.226562 -11.21875 24.226562 -15.085938 C 24.226562 -19.34375 23.40625 -22.46875 21.765625 -24.460938 C 20.125 -26.453125 18.105469 -27.453125 15.703125 -27.453125 C 13.359375 -27.453125 11.402344 -26.492188 9.828125 -24.578125 C 8.257812 -22.664062 7.46875 -19.648438 7.46875 -15.527344 Z M 7.46875 -15.527344"/></g><g id="glyph-0-1"><path d="M 3.984375 -36.882812 L 3.984375 -42.949219 L 9.257812 -42.949219 L 9.257812 -36.882812 Z M 3.984375 0 L 3.984375 -31.113281 L 9.257812 -31.113281 L 9.257812 0 Z M 3.984375 0"/></g><g id="glyph-0-2"><path d="M 1.84375 -9.289062 L 7.0625 -10.109375 C 7.355469 -8.019531 8.167969 -6.414062 9.507812 -5.304688 C 10.84375 -4.191406 12.714844 -3.632812 15.117188 -3.632812 C 17.539062 -3.632812 19.335938 -4.125 20.507812 -5.113281 C 21.679688 -6.097656 22.265625 -7.257812 22.265625 -8.585938 C 22.265625 -9.777344 21.75 -10.710938 20.710938 -11.398438 C 19.988281 -11.867188 18.195312 -12.460938 15.320312 -13.183594 C 11.453125 -14.160156 8.773438 -15.003906 7.28125 -15.71875 C 5.785156 -16.429688 4.652344 -17.417969 3.882812 -18.675781 C 3.109375 -19.9375 2.726562 -21.328125 2.726562 -22.851562 C 2.726562 -24.238281 3.042969 -25.523438 3.675781 -26.703125 C 4.3125 -27.886719 5.175781 -28.867188 6.269531 -29.648438 C 7.089844 -30.253906 8.207031 -30.765625 9.625 -31.1875 C 11.039062 -31.605469 12.558594 -31.816406 14.179688 -31.816406 C 16.621094 -31.816406 18.765625 -31.464844 20.609375 -30.761719 C 22.457031 -30.058594 23.820312 -29.105469 24.695312 -27.90625 C 25.574219 -26.703125 26.179688 -25.097656 26.515625 -23.085938 L 21.359375 -22.382812 C 21.125 -23.984375 20.445312 -25.234375 19.320312 -26.132812 C 18.199219 -27.03125 16.609375 -27.480469 14.5625 -27.480469 C 12.140625 -27.480469 10.410156 -27.078125 9.375 -26.28125 C 8.339844 -25.480469 7.820312 -24.539062 7.820312 -23.46875 C 7.820312 -22.785156 8.039062 -22.167969 8.46875 -21.621094 C 8.898438 -21.054688 9.570312 -20.585938 10.488281 -20.214844 C 11.015625 -20.019531 12.570312 -19.570312 15.148438 -18.867188 C 18.878906 -17.871094 21.480469 -17.054688 22.953125 -16.421875 C 24.429688 -15.785156 25.585938 -14.863281 26.425781 -13.652344 C 27.265625 -12.441406 27.6875 -10.9375 27.6875 -9.140625 C 27.6875 -7.382812 27.171875 -5.726562 26.148438 -4.175781 C 25.121094 -2.621094 23.640625 -1.421875 21.710938 -0.570312 C 19.777344 0.277344 17.585938 0.703125 15.148438 0.703125 C 11.105469 0.703125 8.023438 -0.136719 5.902344 -1.816406 C 3.785156 -3.496094 2.429688 -5.984375 1.84375 -9.289062 Z M 1.84375 -9.289062"/></g><g id="glyph-0-3"><path d="M 15.46875 -4.71875 L 16.230469 -0.0585938 C 14.746094 0.253906 13.417969 0.410156 12.246094 0.410156 C 10.332031 0.410156 8.847656 0.109375 7.792969 -0.5 C 6.738281 -1.105469 5.996094 -1.898438 5.566406 -2.886719 C 5.136719 -3.871094 4.921875 -5.945312 4.921875 -9.109375 L 4.921875 -27.011719 L 1.054688 -27.011719 L 1.054688 -31.113281 L 4.921875 -31.113281 L 4.921875 -38.820312 L 10.164062 -41.984375 L 10.164062 -31.113281 L 15.46875 -31.113281 L 15.46875 -27.011719 L 10.164062 -27.011719 L 10.164062 -8.820312 C 10.164062 -7.316406 10.257812 -6.347656 10.445312 -5.917969 C 10.628906 -5.488281 10.933594 -5.148438 11.351562 -4.890625 C 11.773438 -4.636719 12.375 -4.511719 13.15625 -4.511719 C 13.742188 -4.511719 14.511719 -4.578125 15.46875 -4.71875 Z M 15.46875 -4.71875"/></g><g id="glyph-0-4"><path d="M 3.898438 0 L 3.898438 -31.113281 L 8.640625 -31.113281 L 8.640625 -26.398438 C 9.851562 -28.605469 10.972656 -30.058594 11.996094 -30.761719 C 13.023438 -31.464844 14.148438 -31.816406 15.382812 -31.816406 C 17.160156 -31.816406 18.964844 -31.25 20.800781 -30.117188 L 18.984375 -25.226562 C 17.695312 -25.988281 16.40625 -26.367188 15.117188 -26.367188 C 13.964844 -26.367188 12.929688 -26.019531 12.011719 -25.328125 C 11.09375 -24.632812 10.4375 -23.671875 10.046875 -22.441406 C 9.460938 -20.566406 9.171875 -18.515625 9.171875 -16.289062 L 9.171875 0 Z M 3.898438 0"/></g><g id="glyph-0-5"><path d="M 8.820312 0 L 3.925781 0 L 3.925781 -42.949219 L 9.199219 -42.949219 L 9.199219 -27.625 C 11.425781 -30.417969 14.265625 -31.816406 17.726562 -31.816406 C 19.640625 -31.816406 21.449219 -31.429688 23.160156 -30.660156 C 24.867188 -29.886719 26.273438 -28.804688 27.378906 -27.40625 C 28.480469 -26.011719 29.34375 -24.328125 29.96875 -22.351562 C 30.59375 -20.378906 30.90625 -18.273438 30.90625 -16.023438 C 30.90625 -10.691406 29.589844 -6.570312 26.953125 -3.664062 C 24.316406 -0.753906 21.152344 0.703125 17.460938 0.703125 C 13.789062 0.703125 10.90625 -0.828125 8.820312 -3.898438 Z M 8.757812 -15.789062 C 8.757812 -12.058594 9.265625 -9.367188 10.28125 -7.703125 C 11.941406 -4.988281 14.1875 -3.632812 17.023438 -3.632812 C 19.328125 -3.632812 21.320312 -4.632812 23 -6.636719 C 24.679688 -8.636719 25.515625 -11.621094 25.515625 -15.585938 C 25.515625 -19.648438 24.710938 -22.648438 23.101562 -24.578125 C 21.488281 -26.511719 19.539062 -27.480469 17.257812 -27.480469 C 14.953125 -27.480469 12.960938 -26.480469 11.28125 -24.476562 C 9.601562 -22.476562 8.757812 -19.578125 8.757812 -15.789062 Z M 8.757812 -15.789062"/></g><g id="glyph-0-6"><path d="M 24.34375 0 L 24.34375 -4.570312 C 21.921875 -1.054688 18.632812 0.703125 14.472656 0.703125 C 12.636719 0.703125 10.921875 0.351562 9.332031 -0.351562 C 7.738281 -1.054688 6.558594 -1.9375 5.785156 -3.003906 C 5.015625 -4.066406 4.472656 -5.371094 4.160156 -6.914062 C 3.945312 -7.949219 3.835938 -9.589844 3.835938 -11.835938 L 3.835938 -31.113281 L 9.109375 -31.113281 L 9.109375 -13.859375 C 9.109375 -11.105469 9.21875 -9.25 9.433594 -8.289062 C 9.765625 -6.902344 10.46875 -5.816406 11.542969 -5.023438 C 12.617188 -4.234375 13.945312 -3.835938 15.527344 -3.835938 C 17.109375 -3.835938 18.59375 -4.242188 19.980469 -5.054688 C 21.367188 -5.863281 22.347656 -6.96875 22.925781 -8.363281 C 23.5 -9.761719 23.789062 -11.789062 23.789062 -14.445312 L 23.789062 -31.113281 L 29.0625 -31.113281 L 29.0625 0 Z M 24.34375 0"/></g><g id="glyph-0-7"><path d="M 1.992188 -15.554688 C 1.992188 -21.316406 3.59375 -25.585938 6.796875 -28.359375 C 9.472656 -30.664062 12.734375 -31.816406 16.582031 -31.816406 C 20.859375 -31.816406 24.355469 -30.414062 27.070312 -27.613281 C 29.785156 -24.808594 31.140625 -20.9375 31.140625 -15.996094 C 31.140625 -11.992188 30.542969 -8.84375 29.339844 -6.546875 C 28.140625 -4.253906 26.390625 -2.46875 24.097656 -1.203125 C 21.800781 0.0664062 19.296875 0.703125 16.582031 0.703125 C 12.226562 0.703125 8.707031 -0.695312 6.019531 -3.484375 C 3.335938 -6.277344 1.992188 -10.304688 1.992188 -15.554688 Z M 7.414062 -15.554688 C 7.414062 -11.570312 8.28125 -8.589844 10.019531 -6.605469 C 11.757812 -4.625 13.945312 -3.632812 16.582031 -3.632812 C 19.199219 -3.632812 21.375 -4.628906 23.117188 -6.621094 C 24.855469 -8.613281 25.722656 -11.648438 25.722656 -15.734375 C 25.722656 -19.582031 24.847656 -22.496094 23.101562 -24.476562 C 21.351562 -26.460938 19.179688 -27.453125 16.582031 -27.453125 C 13.945312 -27.453125 11.757812 -26.464844 10.019531 -24.492188 C 8.28125 -22.519531 7.414062 -19.539062 7.414062 -15.554688 Z M 7.414062 -15.554688"/></g><g id="glyph-0-8"><path d="M 3.953125 0 L 3.953125 -31.113281 L 8.703125 -31.113281 L 8.703125 -26.6875 C 10.988281 -30.105469 14.289062 -31.816406 18.601562 -31.816406 C 20.476562 -31.816406 22.203125 -31.480469 23.773438 -30.804688 C 25.347656 -30.132812 26.523438 -29.25 27.304688 -28.15625 C 28.085938 -27.0625 28.632812 -25.761719 28.945312 -24.257812 C 29.140625 -23.28125 29.238281 -21.570312 29.238281 -19.132812 L 29.238281 0 L 23.964844 0 L 23.964844 -18.925781 C 23.964844 -21.074219 23.757812 -22.679688 23.351562 -23.746094 C 22.941406 -24.808594 22.210938 -25.660156 21.167969 -26.292969 C 20.121094 -26.929688 18.898438 -27.246094 17.492188 -27.246094 C 15.246094 -27.246094 13.304688 -26.53125 11.675781 -25.109375 C 10.042969 -23.683594 9.226562 -20.976562 9.226562 -16.992188 L 9.226562 0 Z M 3.953125 0"/></g><g id="glyph-0-9"><path d="M 1.90625 -12.890625 L 1.90625 -18.195312 L 18.105469 -18.195312 L 18.105469 -12.890625 Z M 1.90625 -12.890625"/></g><g id="glyph-0-10"><path d="M 3.953125 11.921875 L 3.953125 -31.113281 L 8.757812 -31.113281 L 8.757812 -27.070312 C 9.890625 -28.652344 11.171875 -29.839844 12.597656 -30.628906 C 14.023438 -31.421875 15.75 -31.816406 17.78125 -31.816406 C 20.4375 -31.816406 22.78125 -31.132812 24.8125 -29.765625 C 26.84375 -28.398438 28.378906 -26.46875 29.414062 -23.980469 C 30.449219 -21.488281 30.96875 -18.757812 30.96875 -15.789062 C 30.96875 -12.605469 30.394531 -9.742188 29.253906 -7.191406 C 28.109375 -4.644531 26.449219 -2.691406 24.273438 -1.332031 C 22.09375 0.0234375 19.804688 0.703125 17.402344 0.703125 C 15.644531 0.703125 14.066406 0.332031 12.671875 -0.410156 C 11.273438 -1.152344 10.125 -2.089844 9.226562 -3.222656 L 9.226562 11.921875 Z M 8.730469 -15.382812 C 8.730469 -11.378906 9.539062 -8.417969 11.164062 -6.503906 C 12.785156 -4.589844 14.746094 -3.632812 17.050781 -3.632812 C 19.394531 -3.632812 21.402344 -4.625 23.070312 -6.605469 C 24.742188 -8.589844 25.578125 -11.660156 25.578125 -15.820312 C 25.578125 -19.785156 24.761719 -22.753906 23.128906 -24.726562 C 21.5 -26.699219 19.550781 -27.6875 17.285156 -27.6875 C 15.039062 -27.6875 13.050781 -26.636719 11.324219 -24.535156 C 9.59375 -22.4375 8.730469 -19.382812 8.730469 -15.382812 Z M 8.730469 -15.382812"/></g><g id="glyph-0-11"><path d="M 25.253906 -10.019531 L 30.703125 -9.34375 C 29.84375 -6.160156 28.25 -3.691406 25.929688 -1.933594 C 23.605469 -0.175781 20.632812 0.703125 17.023438 0.703125 C 12.472656 0.703125 8.863281 -0.699219 6.195312 -3.5 C 3.53125 -6.304688 2.195312 -10.234375 2.195312 -15.292969 C 2.195312 -20.527344 3.546875 -24.589844 6.242188 -27.480469 C 8.9375 -30.371094 12.429688 -31.816406 16.726562 -31.816406 C 20.886719 -31.816406 24.289062 -30.398438 26.921875 -27.570312 C 29.558594 -24.738281 30.878906 -20.75 30.878906 -15.617188 C 30.878906 -15.304688 30.867188 -14.835938 30.851562 -14.210938 L 7.648438 -14.210938 C 7.84375 -10.792969 8.808594 -8.171875 10.546875 -6.359375 C 12.285156 -4.542969 14.453125 -3.632812 17.050781 -3.632812 C 18.984375 -3.632812 20.632812 -4.140625 22 -5.15625 C 23.367188 -6.171875 24.453125 -7.792969 25.253906 -10.019531 Z M 7.9375 -18.546875 L 25.3125 -18.546875 C 25.078125 -21.164062 24.414062 -23.125 23.320312 -24.433594 C 21.640625 -26.464844 19.460938 -27.480469 16.789062 -27.480469 C 14.367188 -27.480469 12.328125 -26.671875 10.679688 -25.046875 C 9.027344 -23.425781 8.117188 -21.257812 7.9375 -18.546875 Z M 7.9375 -18.546875"/></g><g id="glyph-0-12"><path d="M 24.257812 -11.398438 L 29.445312 -10.722656 C 28.878906 -7.148438 27.425781 -4.351562 25.09375 -2.328125 C 22.757812 -0.308594 19.890625 0.703125 16.492188 0.703125 C 12.234375 0.703125 8.8125 -0.6875 6.226562 -3.472656 C 3.636719 -6.253906 2.34375 -10.242188 2.34375 -15.4375 C 2.34375 -18.796875 2.898438 -21.738281 4.015625 -24.257812 C 5.128906 -26.777344 6.820312 -28.667969 9.097656 -29.925781 C 11.371094 -31.1875 13.847656 -31.816406 16.523438 -31.816406 C 19.902344 -31.816406 22.664062 -30.960938 24.8125 -29.253906 C 26.960938 -27.542969 28.339844 -25.117188 28.945312 -21.972656 L 23.820312 -21.179688 C 23.332031 -23.269531 22.464844 -24.84375 21.226562 -25.898438 C 19.984375 -26.953125 18.484375 -27.480469 16.726562 -27.480469 C 14.070312 -27.480469 11.914062 -26.527344 10.253906 -24.625 C 8.59375 -22.71875 7.765625 -19.707031 7.765625 -15.585938 C 7.765625 -11.40625 8.5625 -8.367188 10.164062 -6.476562 C 11.765625 -4.582031 13.859375 -3.632812 16.4375 -3.632812 C 18.507812 -3.632812 20.234375 -4.265625 21.621094 -5.539062 C 23.007812 -6.808594 23.886719 -8.757812 24.257812 -11.398438 Z M 24.257812 -11.398438"/></g></defs><g><use y="50" xlink:href="#glyph-0-0"/><use x="33.369" y="50" xlink:href="#glyph-0-1"/><use x="46.699" y="50" xlink:href="#glyph-0-2"/><use x="76.699" y="50" xlink:href="#glyph-0-3"/><use x="93.369" y="50" xlink:href="#glyph-0-4"/><use x="113.35" y="50" xlink:href="#glyph-0-1"/><use x="126.68" y="50" xlink:href="#glyph-0-5"/><use x="160.049" y="50" xlink:href="#glyph-0-6"/><use x="193.418" y="50" xlink:href="#glyph-0-3"/><use x="210.088" y="50" xlink:href="#glyph-0-1"/><use x="223.418" y="50" xlink:href="#glyph-0-7"/><use x="256.787" y="50" xlink:href="#glyph-0-8"/><use x="290.156" y="50" xlink:href="#glyph-0-9"/><use x="310.137" y="50" xlink:href="#glyph-0-2"/><use x="340.137" y="50" xlink:href="#glyph-0-10"/><use x="373.506" y="50" xlink:href="#glyph-0-11"/><use x="406.875" y="50" xlink:href="#glyph-0-12"/></g></svg>

<svg xmlns="http://www.w3.org/2000/svg" role="img" xmlns:xlink="http://www.w3.org/1999/xlink" viewBox="-6.69 -1.69 451.62 72.12"><title>distribution-spec logo</title><defs><path d="M24.14063 0v-3.92578c-1.97266 3.08594-4.875 4.6289-8.70313 4.6289-2.48047 0-4.75781-.68359-6.83984-2.05078C6.51953-2.71484 4.90625-4.625 3.76563-7.07422c-1.14454-2.45312-1.71485-5.26953-1.71485-8.45312 0-3.10547.51953-5.92188 1.55078-8.45313 1.03516-2.52734 2.58985-4.46484 4.66016-5.8164 2.07031-1.34766 4.38672-2.01954 6.9414-2.01954 1.875 0 3.54688.39454 5.01172 1.1875 1.46485.78907 2.65625 1.82032 3.57422 3.08985v-15.41016h5.24219V0zM7.46874-15.52734c0 3.98437.84375 6.96484 2.52344 8.93359 1.67968 1.97266 3.66015 2.96094 5.94531 2.96094 2.30469 0 4.26172-.9414 5.875-2.82813 1.60938-1.88281 2.41406-4.75781 2.41406-8.625 0-4.25781-.82031-7.38281-2.46093-9.375-1.64063-1.99218-3.66016-2.99218-6.0625-2.99218-2.34375 0-4.30079.96093-5.875 2.875-1.57032 1.91406-2.35938 4.92968-2.35938 9.05078zm0 0" id="a"/><path d="M3.98438-36.88281v-6.0664H9.2578v6.0664zM3.98438 0v-31.11328H9.2578V0zm0 0" id="b"/><path d="M1.84375-9.28906l5.21875-.82032c.29297 2.08985 1.10547 3.69532 2.44531 4.8047 1.33594 1.11327 3.20703 1.67187 5.60938 1.67187 2.42187 0 4.21875-.49219 5.39062-1.48047 1.17188-.98438 1.75782-2.14453 1.75782-3.47266 0-1.1914-.51563-2.125-1.5547-2.8125-.72265-.46875-2.51562-1.0625-5.39062-1.78515-3.86718-.97657-6.54687-1.82032-8.03906-2.53516-1.4961-.71094-2.6289-1.69922-3.39844-2.95703-.77344-1.26172-1.15625-2.65235-1.15625-4.17578 0-1.38672.3164-2.67188.94922-3.85157.63672-1.18359 1.5-2.16406 2.59375-2.9453.82031-.60548 1.9375-1.1172 3.35547-1.53907 1.41406-.41797 2.9336-.6289 4.55469-.6289 2.4414 0 4.58593.35156 6.42968 1.05468 1.84766.70313 3.21094 1.65625 4.08594 2.85547.8789 1.20313 1.48438 2.8086 1.82032 4.82031l-5.15626.70313c-.23437-1.60157-.91406-2.85157-2.03906-3.75-1.1211-.89844-2.71093-1.34766-4.75781-1.34766-2.42188 0-4.15234.40235-5.1875 1.19922-1.03516.80078-1.55469 1.74219-1.55469 2.8125 0 .6836.21875 1.30078.64844 1.84766.42969.5664 1.10156 1.03515 2.01953 1.40625.52735.1953 2.08203.64453 4.66016 1.34765 3.73047.9961 6.33203 1.8125 7.80468 2.44532 1.47657.63671 2.63282 1.55859 3.47266 2.76953.83985 1.21093 1.26172 2.71484 1.26172 4.51172 0 1.7578-.51563 3.41406-1.53906 4.96484-1.02735 1.55469-2.50782 2.7539-4.4375 3.60547-1.9336.84765-4.125 1.27344-6.5625 1.27344-4.04297 0-7.125-.83985-9.2461-2.51954C3.78516-3.49609 2.4297-5.98437 1.84375-9.28906zm0 0" id="c"/><path d="M15.46875-4.71875l.76172 4.66016c-1.48438.3125-2.8125.46875-3.98438.46875-1.91406 0-3.39843-.30079-4.45312-.91016-1.05469-.60547-1.79688-1.39844-2.22656-2.38672-.4297-.98437-.64454-3.0586-.64454-6.22266v-17.90234H1.0547v-4.10156h3.86719v-7.70703l5.24218-3.16407v10.8711h5.30469v4.10156h-5.30469v18.1914c0 1.50391.09375 2.47266.28125 2.90235.1836.42969.48828.76953.90625 1.02735.42188.2539 1.02344.3789 1.80469.3789.58594 0 1.35547-.0664 2.3125-.20703zm0 0" id="d"/><path d="M3.89844 0v-31.11328h4.74218v4.71484c1.21094-2.20703 2.33204-3.66015 3.35547-4.36328 1.02735-.70312 2.15235-1.05469 3.38672-1.05469 1.77735 0 3.58203.56641 5.41797 1.69922l-1.8164 4.89063c-1.28907-.76172-2.57813-1.14063-3.8672-1.14063-1.15234 0-2.1875.34766-3.10546 1.03907-.91797.6953-1.57422 1.65624-1.96485 2.88671-.58593 1.875-.875 3.92579-.875 6.15235V0zm0 0" id="e"/><path d="M8.82031 0H3.92578v-42.94922h5.27344V-27.625c2.22656-2.79297 5.0664-4.1914 8.52734-4.1914 1.91407 0 3.72266.38671 5.4336 1.15624 1.70703.77344 3.11328 1.85547 4.21875 3.25391 1.10156 1.39453 1.96484 3.07813 2.58984 5.05469.625 1.97265.9375 4.07812.9375 6.32812 0 5.33203-1.3164 9.45313-3.95313 12.35938C24.31641-.75391 21.15235.70313 17.46095.70313c-3.67188 0-6.55469-1.53126-8.64063-4.60157zm-.0625-15.78906c0 3.73047.50782 6.42187 1.52344 8.08593 1.66016 2.71485 3.90625 4.07032 6.74219 4.07032 2.30468 0 4.29687-1 5.97656-3.0039 1.67969-2 2.51563-4.98438 2.51563-8.94923 0-4.0625-.8047-7.0625-2.41407-8.99218-1.61328-1.9336-3.5625-2.90235-5.84375-2.90235-2.30468 0-4.29687 1-5.97656 3.0039-1.67969 2-2.52344 4.89844-2.52344 8.6875zm0 0" id="f"/><path d="M24.34375 0v-4.57031C21.92187-1.0547 18.63281.70313 14.47265.70313c-1.83593 0-3.55077-.35157-5.14062-1.0547C7.73828-1.05468 6.5586-1.9375 5.78516-3.0039c-.76954-1.0625-1.3125-2.36718-1.625-3.91015-.21485-1.03516-.32422-2.67578-.32422-4.92188v-19.27734h5.27343v17.2539c0 2.75391.10938 4.60938.32422 5.57032.33203 1.38672 1.03516 2.47265 2.10938 3.26562 1.07422.78906 2.40234 1.1875 3.98437 1.1875s3.06641-.40625 4.45313-1.21875c1.38672-.8086 2.36719-1.91406 2.94531-3.3086.57422-1.39843.86328-3.42577.86328-6.08202v-16.66797h5.27344V0zm0 0" id="g"/><path d="M1.99219-15.55469c0-5.76172 1.60156-10.03125 4.80468-12.80468 2.67579-2.3047 5.9375-3.45704 9.78516-3.45704 4.27735 0 7.77344 1.40235 10.48828 4.20313 2.71485 2.80469 4.07032 6.67578 4.07032 11.61719 0 4.0039-.59766 7.15234-1.80079 9.44922-1.19921 2.29296-2.94921 4.07812-5.24218 5.34375C21.80078.0664 19.29687.70311 16.58203.70311c-4.35547 0-7.875-1.39843-10.5625-4.1875-2.6836-2.79296-4.02734-6.8203-4.02734-12.0703zm5.42187 0c0 3.98438.86719 6.96485 2.60547 8.94922 1.73828 1.98047 3.92578 2.97266 6.5625 2.97266 2.61719 0 4.79297-.9961 6.53516-2.98828 1.73828-1.9922 2.60547-5.02735 2.60547-9.11329 0-3.84765-.875-6.76171-2.6211-8.74218-1.75-1.98438-3.92187-2.97657-6.51953-2.97657-2.63672 0-4.82422.98829-6.5625 2.96094-1.73828 1.97266-2.60547 4.95313-2.60547 8.9375zm0 0" id="h"/><path d="M3.95313 0v-31.11328h4.75v4.42578c2.28515-3.41797 5.58593-5.1289 9.89843-5.1289 1.875 0 3.60157.33593 5.17188 1.01171 1.57422.67188 2.75 1.55469 3.53125 2.64844s1.32812 2.39453 1.64062 3.89844c.19532.97656.29297 2.6875.29297 5.125V0h-5.27344v-18.92578c0-2.14844-.20703-3.7539-.61328-4.82031-.41015-1.0625-1.14062-1.91407-2.1836-2.54688-1.04687-.63672-2.26952-.95312-3.67577-.95312-2.2461 0-4.1875.71484-5.8164 2.13671-1.63282 1.42579-2.44923 4.13282-2.44923 8.1172V0zm0 0" id="i"/><path d="M1.90625-12.89063v-5.30468h16.19922v5.30468zm0 0" id="j"/><path d="M3.95313 11.92188v-43.03516H8.7578v4.04297c1.13282-1.58203 2.41407-2.76953 3.83985-3.5586 1.42578-.79296 3.15234-1.1875 5.18359-1.1875 2.65625 0 5 .6836 7.03125 2.05079 2.03125 1.36718 3.5664 3.29687 4.60156 5.78515 1.03516 2.49219 1.55469 5.22266 1.55469 8.1914 0 3.1836-.57422 6.04688-1.71484 8.59766-1.14454 2.54688-2.8047 4.5-4.98047 5.85938C22.09375.02344 19.80469.70313 17.40234.70313c-1.7578 0-3.33593-.3711-4.73046-1.11329-1.39844-.74218-2.54688-1.67968-3.44532-2.8125v15.14454zm4.77734-27.3047c0 4.00391.8086 6.96485 2.4336 8.87891 1.62109 1.91407 3.58202 2.8711 5.88671 2.8711 2.34375 0 4.35156-.99219 6.01953-2.97266 1.67188-1.98437 2.50782-5.05469 2.50782-9.21484 0-3.96485-.81641-6.9336-2.44922-8.90625-1.62891-1.97266-3.57813-2.96094-5.84375-2.96094-2.2461 0-4.23438 1.05078-5.96094 3.15234-1.73047 2.09766-2.59375 5.15235-2.59375 9.15235zm0 0" id="k"/><path d="M25.2539-10.01953l5.44922.67578c-.85937 3.1836-2.45312 5.65234-4.77343 7.41016C23.60547-.1758 20.6328.70312 17.02344.70312 12.47266.70313 8.86328-.69921 6.1953-3.5c-2.66406-2.80469-4-6.73438-4-11.79297 0-5.23437 1.35156-9.29687 4.04688-12.1875 2.69531-2.89062 6.1875-4.33594 10.48437-4.33594 4.16016 0 7.5625 1.41797 10.19532 4.2461C29.55859-24.73828 30.8789-20.75 30.8789-15.6172c0 .3125-.01172.78125-.02735 1.40625H7.64844c.19531 3.41797 1.16015 6.03907 2.89844 7.85157 1.73828 1.8164 3.90625 2.72656 6.5039 2.72656 1.9336 0 3.58203-.50781 4.94922-1.52344 1.36719-1.01563 2.45313-2.63672 3.2539-4.86328zM7.9375-18.54688h17.375c-.23438-2.61718-.89844-4.57812-1.99219-5.88671-1.67968-2.03125-3.85937-3.04688-6.53125-3.04688-2.42187 0-4.46093.8086-6.10937 2.4336-1.65235 1.62109-2.5625 3.78906-2.74219 6.5zm0 0" id="l"/><path d="M24.25781-11.39844l5.1875.67578c-.5664 3.57422-2.01953 6.3711-4.35156 8.39453C22.75781-.30858 19.89062.70313 16.49219.70313c-4.25782 0-7.67969-1.39062-10.26563-4.17578C3.63672-6.2539 2.34375-10.24219 2.34375-15.4375c0-3.35938.55469-6.30078 1.67188-8.82031 1.11328-2.51953 2.80468-4.41016 5.08203-5.66797 2.27343-1.26172 4.75-1.89063 7.42578-1.89063 3.3789 0 6.14062.85547 8.28906 2.5625 2.14844 1.71094 3.52734 4.13672 4.13281 7.28125l-5.125.79297c-.48828-2.08984-1.35547-3.66406-2.59375-4.71875-1.24218-1.05468-2.74218-1.58203-4.5-1.58203-2.65625 0-4.8125.95313-6.47265 2.85547-1.66016 1.90625-2.48828 4.91797-2.48828 9.03906 0 4.17969.79687 7.21875 2.39843 9.10938 1.60157 1.89453 3.69532 2.84375 6.27344 2.84375 2.07031 0 3.79688-.63281 5.1836-1.90625 1.38671-1.26953 2.26562-3.21875 2.63671-5.85938zm0 0" id="m"/></defs><use y="50" xlink:href="#a"/><use x="33.369" y="50" xlink:href="#b"/><use x="46.699" y="50" xlink:href="#c"/><use x="76.699" y="50" xlink:href="#d"/><use x="93.369" y="50" xlink:href="#e"/><use x="113.35" y="50" xlink:href="#b"/><use x="126.68" y="50" xlink:href="#f"/><use x="160.049" y="50" xlink:href="#g"/><use x="193.418" y="50" xlink:href="#d"/><use x="210.088" y="50" xlink:href="#b"/><use x="223.418" y="50" xlink:href="#h"/><use x="256.787" y="50" xlink:href="#i"/><use x="290.156" y="50" xlink:href="#j"/><use x="310.137" y="50" xlink:href="#c"/><use x="340.137" y="50" xlink:href="#k"/><use x="373.506" y="50" xlink:href="#l"/><use x="406.875" y="50" xlink:href="#m"/></svg>
